public/img/sms.svg

<svg fill="none" height="24" viewBox="0 0 24 24" width="24" xmlns="http://www.w3.org/2000/svg"><path d="m21.9844 3.01562v15.98438h-15.9844l-3.98438 3.9844v-19.96878zm-12.9844 8.99998v-2.0156h-2.01562v2.0156zm3.9844 0v-2.0156h-1.9688v2.0156zm4.0312 0v-2.0156h-2.0156v2.0156z" fill="#5f6369"/></svg>

<svg width="24" height="24" viewBox="0 0 24 24" fill="none" xmlns="http://www.w3.org/2000/svg">
<path d="M21.9844 3.01562V19H6L2.01562 22.9844V3.01562H21.9844ZM9 12.0156V10H6.98438V12.0156H9ZM12.9844 12.0156V10H11.0156V12.0156H12.9844ZM17.0156 12.0156V10H15V12.0156H17.0156Z" fill="#5F6369"/>
</svg>
